X:1
T:Beulah Land
T:Beulah Land
T:John Robson Sweney
T:Edgar Page Stites, 1876
T:Public Domain Courtesy of the Cyber Hymnal™
T:Public Domain Courtesy of the Cyber Hymnal™
C:John Robson Sweney
Z:Public Domain
Z:Courtesy of the Cyber Hymnal™
%%score ( 1 2 ) 3
L:1/8
Q:1/4=90
M:3/4
K:G
V:1 treble 
V:2 treble 
V:3 bass 
V:1
 D2 | [GB]>[GB] [GB]2 [DA]2 | [DG]>[DG] [DG]2 D2 | [Fc]>[Fc] [Fc]2 [GB]2 | [FA]>[FA] [FA]2 D2 | %5
w: 1.~I’ve|reached the land of|corn and wine, And|all its rich- es|free- ly mine; Here|
w: 2.~My|Sav- ior comes and|walks with me, And|sweet com- mun- ion|here have we; He|
w: 3.~A|sweet per- fume up-|on the breeze, Is|borne from ev- er|ver- nal trees, And|
w: 4.~The|ze- phyrs seem to|float to me, Sweet|sounds to Hea- ven’s|mel- o- dy, As|
 [GB]>[GB] [GB]2 [Fc]2 | [Gd]>[Gd] [Gd]2 [GB]2 | [FA][Fd] [Fc]2 [DF]2 | [DA]>[DG] [DG]6 || %9
w: shines un- dimmed one|bliss- ful day, For|all my night has|passed a- way.|
w: gent- ly leads me|by His hand, For|this is Heav- en’s|bor- der land.|
w: flow’rs, that ne- ver|fad- ing grow Where|streams of life for-|ev- er flow.|
w: an- gels with the|white robed throng Join|in the sweet re-|demp- tion song.|
"^Refrain" B2 | [FA]>[FA] [FA]2 d2 | [GB]>[GB] [GB]2 [Gd]2 | [Fe]>[Fd] [Fc]2 [FA]2 | %13
w: ||||
w: O|Beu- lah Land, sweet|Beu- lah Land, As|on thy high- est|
w: ||||
w: ||||
 [Bd]>[Ac] [GB]2 [GB]2 | [FA]>[^E^G] [FA]2 [=GB]2 | [Ac]>[^GB] [Ac]2 [FA]2 | %16
w: |||
w: mount I stand, I|look a- way a-|cross the sea, Where|
w: |||
w: |||
 [GB]>[FA] [GB]2 [Ac]2 | [Gd]>[G^c] [Gd]2 [Gd]2 | [Ge]>[G^d] [Ge]2 [Gc]2 | [Gd]>[G^c] [Gd]2 [GB]2 | %20
w: ||||
w: man- sions are pre-|pared for me, And|view the shin- ing|glor- y shore, My|
w: ||||
w: ||||
 [FA][Fd] [Fc]2 [DF]2 | [DA]>[DG] [DG]2 |] %22
w: ||
w: Heav’n, my home for-|ev- er more!|
w: ||
w: ||
V:2
 D2 | x6 | x4 D2 | x6 | x4 D2 | x6 | x6 | x6 | x8 || B2 | x4 d2 | x6 | x6 | x6 | x6 | x6 | x6 | %17
 x6 | x6 | x6 | x6 | x4 |] %22
V:3
 [G,B,]2 | [G,D]>[G,D] [G,D]2 [G,C]2 | [G,B,]>[G,B,] [G,B,]2 [G,B,]2 | %3
 [D,A,]>[D,A,] [D,A,]2 [D,D]2 | [D,D]>[D,D] [D,D]2 [D,D]2 | [G,D]>[G,D] [G,D]2 [A,D]2 | %6
 [B,D]>[B,D] [B,D]2 [G,D]2 | [D,D][D,D] [D,A,]2 [D,C]2 | [D,C]>[G,,B,] [G,,B,]6 || z2 | %10
 [D,D]>[D,D] [D,D]2 z2 | [G,D]>[G,D] [G,D]2 [G,B,]2 | [D,C]>[D,B,] [D,A,]2 [D,D]2 | %13
 [D,D]>[D,D] [G,D]2 [G,D]2 | [D,D]>[D,D] [D,D]2 [D,D]2 | [D,D]>[D,D] [D,D]2 [D,D]2 | %16
 [G,D]>[G,D] [G,D]2 [G,C]2 | [G,B,]>[G,^A,] [G,B,]2 [G,B,]2 | [C,C]>[C,C] [C,C]2 [E,C]2 | %19
 [G,B,]>[G,^A,] [G,B,]2 [G,D]2 | [D,D][D,D] [D,A,]2 [D,C]2 | [D,C]>[G,,B,] [G,,B,]2 |] %22

